X:1908
T:Farmors Brudpolska
O:england
R:polska K1
N:A polska with short first beat.
M:3/4
L:1/16
K:Dm
A4 A2^c2 A3^c|A4 A2^c2 A3^c|e4 gage f3g|f2e2 d3^c d3e|
f4 fafd e3^c|A4 A2^c2 A3^c|A4 A2^c2 A3^c|e4 gage f3g|
f2e2 d3^c d3e|f4 fafd e3^c|^c4 d8:|
|:a4 a2=b2 a3g|e4 gage f3g|a4 a2c'2 a3g|e4 gage f3g|
f2e2 d2^c2 d3e|f4 fafd e3^c| A4 A2^c2 A3^c|A4 A2^c2 A3^c|
e4 gage f3g|f2e2 d3^c d3e|f4 fafd e3^c|^c4 d8:|


